packages/icons/web/mastercard_large.svg

<svg width="24" height="24" viewBox="0 0 24 24" fill="none" xmlns="http://www.w3.org/2000/svg">
<path d="M8.31565 18.8435C11.8037 18.8435 14.6313 15.9684 14.6313 12.4217C14.6313 8.87511 11.8037 6 8.31565 6C4.82761 6 2 8.87511 2 12.4217C2 15.9684 4.82761 18.8435 8.31565 18.8435Z" fill="#FF2F05"/>
<path d="M15.6838 18.9504C19.1719 18.9504 21.9995 16.0753 21.9995 12.5287C21.9995 8.98204 19.1719 6.10693 15.6838 6.10693C12.1958 6.10693 9.36816 8.98204 9.36816 12.5287C9.36816 16.0753 12.1958 18.9504 15.6838 18.9504Z" fill="#FFBC37"/>
<path fill-rule="evenodd" clip-rule="evenodd" d="M12.0919 7.24658C13.6334 8.41748 14.6313 10.2873 14.6313 12.3941C14.6313 14.5838 13.5534 16.5175 11.9075 17.6766C10.3661 16.5057 9.36816 14.6358 9.36816 12.529C9.36816 10.3393 10.4461 8.40565 12.0919 7.24658Z" fill="#FF8729"/>
</svg>

<svg width="24" height="24" fill="none" xmlns="http://www.w3.org/2000/svg">
    <path d="M8.316 18.843c3.488 0 6.315-2.875 6.315-6.421C14.631 8.875 11.804 6 8.316 6 4.828 6 2 8.875 2 12.422c0 3.546 2.828 6.421 6.316 6.421z" fill="#FF2F05"/>
    <path d="M15.684 18.95c3.488 0 6.316-2.875 6.316-6.421 0-3.547-2.828-6.422-6.316-6.422s-6.316 2.875-6.316 6.422c0 3.546 2.828 6.421 6.316 6.421z" fill="#FFBC37"/>
    <path fill-rule="evenodd" clip-rule="evenodd" d="M12.092 7.247a6.447 6.447 0 012.54 5.147 6.445 6.445 0 01-2.724 5.283 6.448 6.448 0 01-2.54-5.148 6.445 6.445 0 012.724-5.282z" fill="#FF8729"/>
</svg>
